search/search-dev-tools/src/assets/wpvip.svg

<svg width="31" height="14" viewBox="0 0 31 14" fill="none" xmlns="http://www.w3.org/2000/svg">
<path d="M6.62826 0.758606C2.9812 0.758606 0 3.73301 0 7.37175C0 11.0256 2.9812 14 6.62826 14C10.2904 14 13.2716 11.0256 13.2716 7.37175C13.2716 3.73301 10.2904 0.758606 6.62826 0.758606ZM0.665852 7.37175C0.665852 6.51113 0.847448 5.69581 1.18037 4.95599L4.02538 12.7317C2.04296 11.7654 0.665852 9.72711 0.665852 7.37175ZM6.62826 13.3206C6.03807 13.3206 5.47815 13.23 4.94849 13.079L6.73419 7.8851L8.56528 12.8978C8.58041 12.928 8.59555 12.9582 8.61068 12.9733C7.99023 13.1998 7.32437 13.3206 6.62826 13.3206ZM7.46057 4.59362C7.82376 4.57853 8.14156 4.53323 8.14156 4.53323C8.45935 4.48793 8.42908 4.01988 8.09616 4.05008C8.09616 4.05008 7.12765 4.12557 6.50719 4.12557C5.91701 4.12557 4.93336 4.05008 4.93336 4.05008C4.61557 4.03498 4.57017 4.51813 4.90309 4.53323C4.90309 4.53323 5.20575 4.56343 5.52355 4.59362L6.44666 7.13017L5.14522 11.0256L2.9812 4.59362C3.34439 4.57853 3.66219 4.53323 3.66219 4.53323C3.97998 4.48793 3.94971 4.01988 3.61679 4.05008C3.61679 4.05008 2.64828 4.12557 2.02782 4.12557H1.6495C2.72394 2.49493 4.55503 1.42294 6.62826 1.42294C8.18696 1.42294 9.59433 2.01178 10.6536 2.97808H10.578C9.98778 2.97808 9.57919 3.49143 9.57919 4.03498C9.57919 4.51813 9.86672 4.94089 10.1694 5.42404C10.3964 5.8166 10.6536 6.32995 10.6536 7.06978C10.6536 7.58313 10.5023 8.21726 10.1996 8.98729L9.60946 10.9652L7.46057 4.59362ZM9.62459 12.5203L11.4406 7.26606C11.7735 6.42054 11.8945 5.74111 11.8945 5.13717C11.8945 4.91069 11.8794 4.71441 11.8491 4.51813C12.3183 5.36365 12.5755 6.34505 12.5755 7.37175C12.5907 9.57613 11.4103 11.4936 9.62459 12.5203ZM19.2643 4.32185L17.9175 8.26256C17.7813 8.74571 17.6602 9.19866 17.6148 9.62142H17.5846C17.5543 9.19866 17.4332 8.73061 17.2819 8.26256L15.9351 4.32185H14.1645L16.7068 10.9803H18.5228L21.0651 4.32185H19.2643ZM21.9429 4.32185L21.4435 5.63542V10.9652H23.2292V4.32185H21.9429ZM29.6002 5.10697C29.1613 4.50303 28.5408 4.20106 27.7539 4.20106C26.9216 4.20106 26.3466 4.53323 25.9228 5.18246H25.832L25.5748 4.32185H24.122V14H25.9077V11.2068C25.9077 11.1162 25.8774 10.7991 25.8169 10.2405H25.9077C26.3466 10.8142 26.9065 11.086 27.6934 11.086C28.2079 11.086 28.6619 10.9501 29.0554 10.6783C29.4337 10.4065 29.7364 9.99888 29.9482 9.48554C30.1601 8.95709 30.266 8.33805 30.266 7.62842C30.266 6.55643 30.039 5.71091 29.6002 5.10697ZM27.2545 9.62142C26.8006 9.62142 26.4525 9.47044 26.2406 9.15337C26.0288 8.8514 25.9228 8.33805 25.9228 7.61332V7.41704C25.938 6.78291 26.0439 6.32995 26.2406 6.05818C26.4525 5.7864 26.7703 5.65052 27.2243 5.65052C27.648 5.65052 27.9658 5.8166 28.1625 6.14877C28.3593 6.48094 28.4652 6.96409 28.4652 7.62842C28.4803 8.94199 28.0717 9.62142 27.2545 9.62142Z" fill="#D8A45F"/>
</svg>

<svg width="31" height="14" fill="none" xmlns="http://www.w3.org/2000/svg"><path d="M6.628.759C2.981.759 0 3.733 0 7.372 0 11.026 2.981 14 6.628 14c3.662 0 6.644-2.974 6.644-6.628 0-3.639-2.982-6.613-6.644-6.613ZM.666 7.372c0-.86.181-1.676.514-2.416l2.845 7.776a5.97 5.97 0 0 1-3.36-5.36Zm5.962 5.949a6.1 6.1 0 0 1-1.68-.242l1.786-5.194 1.831 5.013c.015.03.03.06.046.075a5.76 5.76 0 0 1-1.983.348Zm.833-8.727c.363-.015.68-.06.68-.06.318-.046.288-.514-.045-.484 0 0-.968.076-1.589.076-.59 0-1.574-.076-1.574-.076-.317-.015-.363.468-.03.483l.62.06.924 2.537-1.302 3.896-2.164-6.432c.363-.015.681-.06.681-.06.318-.046.288-.514-.045-.484 0 0-.969.076-1.59.076H1.65c1.075-1.631 2.906-2.703 4.98-2.703a5.94 5.94 0 0 1 4.025 1.555h-.076c-.59 0-.999.513-.999 1.057 0 .483.288.906.59 1.389.227.393.485.906.485 1.646 0 .513-.152 1.147-.454 1.917l-.59 1.978-2.15-6.371Zm2.164 7.926 1.816-5.254c.332-.845.454-1.525.454-2.129 0-.226-.016-.423-.046-.619a5.88 5.88 0 0 1 .726 2.854 5.866 5.866 0 0 1-2.95 5.148Zm9.64-8.198-1.348 3.94c-.136.484-.257.937-.302 1.36h-.03c-.03-.423-.152-.891-.303-1.36l-1.347-3.94h-1.77l2.542 6.658h1.816l2.542-6.658h-1.8Zm2.678 0-.5 1.313v5.33h1.786V4.322h-1.286Zm7.657.785c-.439-.604-1.06-.906-1.846-.906-.832 0-1.407.332-1.831.981h-.091l-.257-.86h-1.453V14h1.786v-2.793c0-.09-.03-.408-.091-.966h.09c.44.573 1 .845 1.786.845.515 0 .969-.136 1.362-.408.379-.272.681-.68.893-1.192.212-.529.318-1.148.318-1.858 0-1.072-.227-1.917-.666-2.521Zm-2.346 4.514c-.453 0-.802-.15-1.013-.468-.212-.302-.318-.815-.318-1.54v-.196c.015-.634.12-1.087.318-1.359.212-.272.53-.407.983-.407.424 0 .742.166.939.498.196.332.302.815.302 1.48.015 1.313-.393 1.992-1.21 1.992Z" fill="#D8A45F"/></svg>
